X:20
T:Walk Me Along, Johnny
M:6/8
L:1/8
Q:1/4=90
K:G
D2D G2G|AGA d3|A2A/A/ BAG|A/A/AA A3|
ccc edc|BAB d3|G2G/G/ BAB|G2G/G/ G2B/c/|
dcB cBA|BAB d3|A2A/A/ BAG|A/A/AA A3|
cAc edc|BAB d3|G2G/G/ BAB|G2G/G/ G3||
